X: 3235
T: Begley's Frolics
R: polka
M: 2/4
K: Gmajor
A3 B|cA dB|cA GF|D2 D>B,|CG FD|CD A,2|D/2E/2F/2G/2 AB|ce dc|
A2 A>B|cA dB|cA GF|D2 D2|CG FD|CD A,^C|DE/2D/2 CA,|G,2 G,>B,||
CA, A,>B,|CD E/2F/G|A,B, CD|B,G, DB,|CA, A,>B,|CD E/2F/G|AB cA|GF ED|
CA, A,>B,|CD E/2F/G|A,B, CD|B,G, DB,|CA, DB,|EC FD|GE AF|BG dB||

